svg/alert_circle_positive.svg

<?xml version="1.0" encoding="UTF-8" standalone="no"?>
<!-- Created with Inkscape (http://www.inkscape.org/) -->
<svg id="svg8" xmlns:rdf="http://www.w3.org/1999/02/22-rdf-syntax-ns#" xmlns="http://www.w3.org/2000/svg" xmlns:osb="http://www.openswatchbook.org/uri/2009/osb" height="48" width="48" version="1.1" xmlns:cc="http://creativecommons.org/ns#" viewBox="0 0 12.7 12.7" xmlns:dc="http://purl.org/dc/elements/1.1/">
 <title id="title4753">UIO-icon</title>
 <metadata id="metadata5">
  <rdf:RDF>
   <cc:Work rdf:about="">
    <dc:format>image/svg+xml</dc:format>
    <dc:type rdf:resource="http://purl.org/dc/dcmitype/StillImage"/>
    <dc:title>UIO-icon</dc:title>
    <dc:creator>
     <cc:Agent>
      <dc:title>Joaquín Urbano</dc:title>
     </cc:Agent>
    </dc:creator>
    <dc:rights>
     <cc:Agent>
      <dc:title>GPL</dc:title>
     </cc:Agent>
    </dc:rights>
   </cc:Work>
  </rdf:RDF>
 </metadata>
 <g id="layer1" transform="translate(0,-284.3)" fill="#333">
  <path id="path878" d="m24 4a20 20 0 0 0 -20 20 20 20 0 0 0 20 20 20 20 0 0 0 20 -20 20 20 0 0 0 -20 -20zm-1.5605 8.832h2.9531l-0.213 15.91h-2.543zm1.5527 19.139c0.54812 0 0.96384 0.158 1.248 0.47266 0.28421 0.30451 0.42773 0.68386 0.42773 1.1406 0 0.45677-0.14352 0.83807-0.42773 1.1426-0.28421 0.29436-0.69993 0.44141-1.248 0.44141-0.54812 0-0.96384-0.14705-1.248-0.44141-0.27406-0.30451-0.41211-0.68581-0.41211-1.1426 0-0.45677 0.13805-0.83611 0.41211-1.1406 0.28421-0.31466 0.69993-0.47266 1.248-0.47266z" fill-rule="evenodd" transform="matrix(.26458 0 0 .26458 0 284.3)"/>
 </g>
</svg>

<svg width="48" height="48" viewBox="0 0 48 48" fill="none" xmlns="http://www.w3.org/2000/svg">
<path fill-rule="evenodd" clip-rule="evenodd" d="M23.9997 4C21.3733 4 18.7727 4.51731 16.3462 5.52239C13.9197 6.52747 11.7149 8.00064 9.85779 9.85779C6.10711 13.6085 4 18.6955 4 23.9997C4 29.304 6.10711 34.391 9.85779 38.1417C11.7149 39.9989 13.9197 41.472 16.3462 42.4771C18.7727 43.4822 21.3733 43.9995 23.9997 43.9995C29.304 43.9995 34.391 41.8924 38.1417 38.1417C41.8924 34.391 43.9995 29.304 43.9995 23.9997C43.9995 21.3733 43.4822 18.7727 42.4771 16.3462C41.472 13.9197 39.9989 11.7149 38.1417 9.85779C36.2846 8.00064 34.0798 6.52747 31.6533 5.52239C29.2268 4.51731 26.6262 4 23.9997 4ZM22.4393 12.8319H25.3923L25.1793 28.7417H22.6364L22.4393 12.8319ZM23.9919 31.9707C24.5401 31.9707 24.9558 32.1286 25.2399 32.4433C25.5241 32.7478 25.6677 33.1272 25.6677 33.5839C25.6677 34.0407 25.5241 34.4219 25.2399 34.7265C24.9557 35.0208 24.54 35.1679 23.9919 35.1679C23.4438 35.1679 23.0281 35.0208 22.744 34.7265C22.4699 34.422 22.3319 34.0407 22.3319 33.5839C22.3319 33.1271 22.4699 32.7478 22.744 32.4433C23.0282 32.1286 23.4439 31.9707 23.9919 31.9707Z" fill="#333333"/>
</svg>
